resources/upload.svg

<svg width="24" height="24" fill="#f4f4f7">
  <path stroke="#555e70" stroke-linecap="round" stroke-linejoin="round" stroke-width="2" d="M4 16v1a3 3 0 0 0 3 3h10a3 3 0 0 0 3-3v-1m-4-8-4-4m0 0L8 8m4-4v12"/>
</svg>

<svg xmlns="http://www.w3.org/2000/svg" width="24" height="24" fill="#f4f4f7" viewBox="0 0 24 24"><path stroke="#555e70" stroke-linecap="round" stroke-linejoin="round" stroke-width="2" d="M4 16L4 17C4 18.6569 5.34315 20 7 20L17 20C18.6569 20 20 18.6569 20 17L20 16M16 8L12 4M12 4L8 8M12 4L12 16"/></svg>
